icons/mobile/24/svg/select-all-24.svg

<svg width="24" height="24" viewBox="0 0 24 24" fill="none" xmlns="http://www.w3.org/2000/svg">
<path d="M20.5058 8.07031C20.8478 7.72831 21.4021 7.72831 21.7441 8.07031C22.0849 8.41226 22.0849 8.96568 21.7441 9.30664L14.9277 16.123C14.3628 16.6878 13.6113 16.9999 12.8105 17C12.0106 17 11.2583 16.6889 10.6933 16.124L7.25582 12.6865C6.91428 12.3446 6.91518 11.7911 7.25582 11.4502C7.59782 11.1082 8.15211 11.1082 8.49411 11.4502L11.9297 14.8857C12.3997 15.3557 13.2224 15.3547 13.6904 14.8857L20.5058 8.07031Z" fill="black"/>
<path d="M2.25582 11.4492C2.59782 11.1072 3.15211 11.1072 3.49411 11.4492L6.92965 14.8848C7.12665 15.0818 7.38919 15.177 7.65719 15.209L9.12887 16.6807C8.72201 16.8806 8.27734 16.999 7.81051 16.999C7.01058 16.999 6.25831 16.688 5.69332 16.123L2.25582 12.6855C1.91427 12.3446 1.91518 11.7911 2.25582 11.4492Z" fill="black"/>
<path d="M15.5068 8.06934C15.8488 7.72734 16.4031 7.72734 16.7451 8.06934C17.0859 8.4103 17.0859 8.9637 16.7451 9.30566L12.6093 13.4424L11.372 12.2041L15.5068 8.06934Z" fill="black"/>
</svg>

<!-- This Source Code Form is subject to the terms of the Mozilla Public
   - License, v. 2.0. If a copy of the MPL was not distributed with this
   - file, You can obtain one at http://mozilla.org/MPL/2.0/. -->
<svg xmlns="http://www.w3.org/2000/svg" width="24" height="24" fill="none" viewBox="0 0 24 24">
    <path fill="#000" d="M20.506 8.07a.876.876 0 0 1 1.238 1.237l-6.816 6.816A2.98 2.98 0 0 1 12.81 17c-.8 0-1.552-.311-2.117-.876l-3.437-3.437a.875.875 0 1 1 1.238-1.237l3.436 3.436c.47.47 1.292.469 1.76 0zM2.256 11.45a.876.876 0 0 1 1.238 0l3.436 3.435c.197.197.46.292.727.324l1.472 1.472c-.407.2-.852.318-1.318.318-.8 0-1.553-.311-2.118-.876l-3.437-3.438a.875.875 0 0 1 0-1.236" />
    <path fill="#000" d="M15.507 8.07a.876.876 0 0 1 1.238 1.236l-4.136 4.136-1.237-1.238z" />
</svg>
